build/dist/assets/images/services/services-2.svg

<svg width="81" height="64" viewBox="0 0 81 64" fill="none" xmlns="http://www.w3.org/2000/svg">
<g clip-path="url(#clip0_801_697)">
<path d="M54.8863 13.3297L59.8192 15.4126C60.8547 15.8491 61.8284 16.4155 62.7161 17.0977C62.8734 17.2192 63.0676 17.2852 63.2676 17.285C63.4541 17.2852 63.636 17.2281 63.788 17.1217C63.9399 17.0152 64.0543 16.8648 64.1151 16.6914C64.176 16.518 64.1803 16.3302 64.1274 16.1543C64.0746 15.9783 63.9672 15.823 63.8202 15.71C62.8108 14.9341 61.7036 14.2899 60.5261 13.7934L55.5931 11.7104C54.6763 11.3241 53.8372 10.7794 53.1156 10.1023C51.4618 8.55229 50.5134 6.37481 50.5134 4.12813V2.88114C50.5134 2.3944 50.1124 2 49.6175 2C49.1227 2 48.7217 2.3944 48.7217 2.88114V4.12802C48.7217 6.8545 49.8728 9.49699 51.8796 11.3779C52.7554 12.1997 53.7737 12.8608 54.8863 13.3297ZM70.8986 52.2096L69.8573 50.2398C69.7845 50.1019 69.7465 49.9488 69.7463 49.7935V39.945C69.7465 39.2535 69.6007 38.5695 69.318 37.9364C69.0354 37.3033 68.6221 36.7348 68.1043 36.267C68.1047 36.2561 68.106 36.2454 68.106 36.2344L68.1061 33.3138C70.3638 28.5436 69.8314 22.9479 66.6986 18.6609C66.63 18.5669 66.5432 18.4871 66.4432 18.4261C66.3432 18.3652 66.232 18.3242 66.1159 18.3055C65.9998 18.2868 65.8811 18.2908 65.7665 18.3172C65.652 18.3437 65.5439 18.3921 65.4484 18.4596C65.3528 18.5271 65.2718 18.6125 65.2098 18.7109C65.1478 18.8092 65.1061 18.9186 65.0871 19.0328C65.0681 19.147 65.0722 19.2637 65.099 19.3764C65.1259 19.489 65.1751 19.5954 65.2438 19.6893C68.0335 23.507 68.4778 28.5049 66.4033 32.7327C66.3448 32.8522 66.3144 32.9831 66.3143 33.1157V34.7566L57.9275 27.7108V26.6865C57.9275 26.1998 57.5265 25.8054 57.0317 25.8054C56.5368 25.8054 56.1358 26.1998 56.1358 26.6865V39.0129C56.1358 40.2174 55.9152 41.4186 55.4931 42.5479L55.3353 42.2892C54.8691 41.5248 54.1251 40.997 53.2406 40.8028C52.3563 40.6092 51.4547 40.7753 50.7023 41.272C49.3959 42.1344 48.8974 43.7927 49.517 45.2153L51.9843 50.8791C52.6159 52.3285 53.5574 53.6273 54.7447 54.687C54.7445 54.7069 54.7442 54.7266 54.7455 54.7467L55.1449 60.9511C55.1599 61.1843 55.2685 61.4022 55.4468 61.5566C55.6251 61.7111 55.8585 61.7896 56.0956 61.7748C56.3328 61.7601 56.5542 61.6533 56.7113 61.4779C56.8683 61.3025 56.9481 61.073 56.9331 60.8397L56.6245 56.0455C56.9254 56.2182 57.2343 56.3771 57.5502 56.5217L58.5595 56.9833L62.0638 61.6427C62.1471 61.7537 62.2557 61.8438 62.3809 61.9059C62.5061 61.9679 62.6445 62.0001 62.7847 61.9999C62.9505 61.9998 63.113 61.9545 63.2542 61.8689C63.3954 61.7833 63.5096 61.6609 63.5842 61.5152C63.6588 61.3695 63.6908 61.2063 63.6766 61.0438C63.6625 60.8813 63.6028 60.7258 63.5041 60.5948L59.864 55.7548C59.775 55.6364 59.6572 55.5419 59.5215 55.4798L58.3052 54.9236C56.2061 53.9654 54.5414 52.2776 53.6311 50.185L51.1637 44.5213C51.0278 44.2087 51.007 43.8592 51.1051 43.5332C51.2031 43.2071 51.4137 42.9249 51.7006 42.7353C51.8673 42.6244 52.0553 42.5483 52.2531 42.5117C52.4508 42.4752 52.6541 42.4789 52.8503 42.5228C53.0468 42.5651 53.2325 42.6467 53.3956 42.7625C53.5588 42.8782 53.6961 43.0257 53.7989 43.1959L55.602 46.1517C55.9772 46.7664 56.6629 47.1483 57.3918 47.1483H58.6132C59.6416 47.1483 60.5081 46.4236 60.6734 45.4251L60.8565 44.3185C60.8754 44.2043 60.8713 44.0876 60.8443 43.975C60.8174 43.8623 60.7681 43.756 60.6994 43.6621C60.6306 43.5682 60.5438 43.4885 60.4437 43.4277C60.3437 43.3668 60.2324 43.3259 60.1163 43.3073C59.8818 43.2698 59.6418 43.3254 59.449 43.462C59.2562 43.5985 59.1264 43.8048 59.0882 44.0354L58.9051 45.1419C58.8941 45.2101 58.8586 45.2722 58.8051 45.317C58.7516 45.3617 58.6836 45.3862 58.6133 45.386H57.3919C57.3409 45.3859 57.2908 45.3728 57.2464 45.3481C57.202 45.3234 57.1648 45.2878 57.1384 45.2449L56.6248 44.4029C57.4768 42.7367 57.9276 40.878 57.9276 39.0127V35.5061L59.9875 37.9269C60.0471 37.9969 60.0728 38.0888 60.0579 38.179L59.7101 40.2804C59.6891 40.4066 59.6963 40.5357 59.7312 40.6588C59.7661 40.7819 59.8278 40.8961 59.912 40.9934C59.9962 41.0907 60.1009 41.1688 60.2189 41.2223C60.3369 41.2758 60.4653 41.3035 60.5953 41.3033C60.8077 41.303 61.0132 41.2284 61.1749 41.093C61.3367 40.9575 61.4443 40.7699 61.4784 40.5636L61.8262 38.462C61.875 38.1677 61.8588 37.8665 61.7786 37.579C61.6983 37.2914 61.556 37.0243 61.3614 36.7957L57.9276 32.7605V30.0283L66.8006 37.4825C67.1627 37.7863 67.4534 38.1638 67.6527 38.589C67.8519 39.0141 67.955 39.4768 67.9547 39.9449V49.7934C67.9547 50.2299 68.0629 50.6655 68.2676 51.0527L69.3089 53.0225C69.3632 53.1251 69.4375 53.2163 69.5275 53.2907C69.6176 53.3651 69.7217 53.4214 69.8339 53.4562C69.9461 53.4911 70.0641 53.5039 70.1813 53.4939C70.2985 53.4838 70.4126 53.4512 70.517 53.3978C70.6213 53.3445 70.714 53.2714 70.7897 53.1828C70.8654 53.0942 70.9225 52.9918 70.958 52.8814C70.9934 52.7711 71.0064 52.655 70.9962 52.5397C70.986 52.4244 70.9529 52.3122 70.8986 52.2096ZM47.0464 37.8996C45.4207 39.337 44.4883 41.3939 44.4883 43.5425C44.4883 44.7725 44.7947 45.9942 45.3744 47.0758C45.4293 47.1782 45.5041 47.2689 45.5946 47.3429C45.6852 47.4168 45.7896 47.4724 45.902 47.5067C46.0144 47.5409 46.1325 47.553 46.2497 47.5423C46.3668 47.5316 46.4807 47.4983 46.5848 47.4444C46.7949 47.3353 46.9524 47.1487 47.0227 46.9254C47.093 46.7022 47.0702 46.4606 46.9595 46.2539C46.5149 45.4247 46.2801 44.4871 46.2801 43.5425C46.2808 42.7254 46.456 41.9174 46.7943 41.1711C47.1327 40.4248 47.6266 39.7567 48.2442 39.21C48.3332 39.1331 48.4057 39.0395 48.4577 38.9348C48.5097 38.8301 48.54 38.7163 48.5469 38.5999C48.5539 38.4836 48.5373 38.3671 48.4981 38.2571C48.459 38.1471 48.398 38.0459 48.3188 37.9592C48.2396 37.8725 48.1437 37.8022 48.0367 37.7522C47.9297 37.7023 47.8136 37.6737 47.6953 37.6682C47.5769 37.6626 47.4586 37.6802 47.3473 37.7199C47.2359 37.7597 47.1336 37.8207 47.0464 37.8996Z" fill="#009B97"/>
<path d="M50.6084 36.1189C50.3783 36.1694 50.1778 36.307 50.0502 36.5019C49.9226 36.6968 49.8782 36.9334 49.9267 37.1603C49.9752 37.3872 50.1126 37.5861 50.3092 37.714C50.5058 37.8419 50.7457 37.8885 50.977 37.8436C51.7348 37.6886 52.5159 37.6789 53.2775 37.8149C53.3938 37.8373 53.5135 37.8367 53.6296 37.8133C53.7457 37.7899 53.856 37.744 53.9539 37.6783C54.0519 37.6127 54.1356 37.5286 54.2003 37.4308C54.265 37.3331 54.3093 37.2237 54.3306 37.1091C54.352 36.9944 54.35 36.8767 54.3248 36.7627C54.2996 36.6488 54.2517 36.5409 54.1838 36.4454C54.1158 36.3498 54.0293 36.2684 53.9292 36.206C53.8291 36.1436 53.7174 36.1013 53.6006 36.0816C52.6176 35.9043 51.5842 35.917 50.6084 36.1189ZM31.3847 2C31.2671 1.99998 31.1506 2.02277 31.0419 2.06704C30.9332 2.11132 30.8345 2.17622 30.7513 2.25805C30.6681 2.33987 30.6021 2.43701 30.5571 2.54393C30.5121 2.65084 30.4889 2.76542 30.4889 2.88114V4.12802C30.4889 6.37469 29.5405 8.55205 27.8867 10.1022C27.165 10.7793 26.3259 11.3239 25.4091 11.7103L20.4762 13.7932C16.7295 15.3753 13.8794 18.3153 12.4514 22.0719C11.0477 25.7646 11.207 29.7487 12.8961 33.3139V36.2344C12.8961 36.2448 12.8973 36.255 12.8976 36.2654C12.3806 36.7243 11.9674 37.2849 11.6846 37.9108C11.4018 38.5367 11.2557 39.2141 11.2559 39.8991V41.4614C11.2559 41.9482 11.6568 42.3425 12.1517 42.3425C12.6465 42.3425 13.0475 41.9482 13.0475 41.4614V39.8991C13.0472 39.4453 13.1471 38.9969 13.3402 38.5848C13.5333 38.1728 13.8151 37.8068 14.1661 37.5124L23.0746 30.0283V32.7605L19.6408 36.7956C19.4461 37.0242 19.3038 37.2914 19.2236 37.579C19.1434 37.8666 19.1271 38.1678 19.1759 38.4621L20.3286 45.4253C20.4067 45.9069 20.6572 46.3453 21.035 46.6612C21.4127 46.9772 21.8928 47.15 22.3887 47.1484H23.6102C24.3392 47.1484 25.0251 46.7665 25.3999 46.1517L27.203 43.1961C27.3059 43.026 27.4431 42.8784 27.6063 42.7626C27.7695 42.6468 27.9551 42.5651 28.1516 42.5228C28.3479 42.4789 28.5512 42.4752 28.749 42.5118C28.9467 42.5484 29.1348 42.6245 29.3014 42.7354C29.5883 42.9251 29.7989 43.2072 29.8969 43.5333C29.9949 43.8593 29.9741 44.2087 29.8382 44.5213L27.3708 50.1851C26.4605 52.2778 24.7957 53.9656 22.6967 54.924L21.4805 55.4799C21.3447 55.5419 21.2269 55.6365 21.1379 55.7549L17.4979 60.5949C17.4279 60.6879 17.3772 60.7935 17.3488 60.9058C17.3203 61.0181 17.3146 61.1348 17.332 61.2492C17.3494 61.3637 17.3896 61.4736 17.4502 61.5728C17.5108 61.6719 17.5907 61.7584 17.6853 61.8272C17.8391 61.9396 18.0257 62.0002 18.2173 62C18.3575 62.0002 18.4958 61.968 18.621 61.9059C18.7462 61.8439 18.8548 61.7538 18.9381 61.6428L22.4425 56.9834L23.4517 56.522C23.7676 56.3774 24.0765 56.2185 24.3775 56.0457L24.0688 60.8398C24.0614 60.9553 24.0771 61.0711 24.1152 61.1806C24.1533 61.2901 24.2129 61.3912 24.2907 61.478C24.4477 61.6534 24.6692 61.7602 24.9063 61.775C25.1434 61.7897 25.3768 61.7112 25.5551 61.5568C25.7334 61.4023 25.842 61.1844 25.857 60.9512L26.2564 54.7468C26.2577 54.7267 26.2573 54.707 26.2571 54.6871C27.4444 53.6273 28.3858 52.3286 29.0175 50.8792L31.4848 45.2153C32.1045 43.7928 31.6061 42.1344 30.2996 41.2721C29.5471 40.7754 28.6454 40.6088 27.7611 40.803C26.8766 40.9971 26.1326 41.5251 25.6665 42.2896L25.5087 42.5481C25.0866 41.4186 24.866 40.2175 24.866 39.0129V26.6865C24.866 26.1998 24.465 25.8054 23.9702 25.8054C23.4753 25.8054 23.0743 26.1998 23.0743 26.6865V27.7108L14.6874 34.7567V33.1157C14.6873 32.9831 14.6569 32.8522 14.5984 32.7327C13.0406 29.558 12.874 25.9911 14.1292 22.6893C15.3844 19.3875 17.8898 16.8032 21.1831 15.4126L26.1158 13.3297C27.2284 12.8607 28.2468 12.1998 29.1227 11.3781C31.1296 9.49699 32.2806 6.85462 32.2806 4.12813V2.88114C32.2806 2.3944 31.8796 2 31.3847 2ZM23.8639 45.2451C23.8375 45.2881 23.8003 45.3236 23.7559 45.3484C23.7115 45.3731 23.6614 45.3861 23.6104 45.3862H22.389C22.3187 45.3865 22.2507 45.362 22.1972 45.3173C22.1437 45.2725 22.1082 45.2104 22.0972 45.1422L20.9445 38.1792C20.9371 38.1347 20.9396 38.0891 20.9517 38.0455C20.9639 38.002 20.9854 37.9616 21.0149 37.927L23.0748 35.5063V39.013C23.0748 40.8783 23.5255 42.7371 24.3776 44.4032L23.8639 45.2451Z" fill="#009B97"/>
<path d="M12.152 44.3357C12.0344 44.3357 11.9179 44.3585 11.8092 44.4027C11.7005 44.447 11.6017 44.5119 11.5186 44.5937C11.4354 44.6756 11.3694 44.7727 11.3244 44.8796C11.2794 44.9865 11.2562 45.1011 11.2562 45.2168V49.8179C11.2562 49.9568 11.2218 50.0952 11.1567 50.2183L10.1041 52.2096C9.99639 52.4167 9.97638 52.6573 10.0484 52.8789C10.1204 53.1005 10.2786 53.2851 10.4884 53.3924C10.6982 53.4998 10.9427 53.5211 11.1685 53.4518C11.3943 53.3825 11.583 53.2282 11.6936 53.0226L12.7463 51.0312C12.9439 50.6563 13.0473 50.2402 13.0477 49.8179V45.2168C13.0478 45.1011 13.0247 44.9865 12.9797 44.8796C12.9347 44.7727 12.8687 44.6755 12.7855 44.5937C12.7023 44.5119 12.6036 44.447 12.4949 44.4027C12.3862 44.3584 12.2697 44.3357 12.152 44.3357ZM33.9561 37.8996C33.8687 37.8222 33.7665 37.7625 33.6556 37.724C33.5447 37.6854 33.4271 37.6688 33.3097 37.6749C33.1922 37.681 33.0771 37.7099 32.971 37.7598C32.8648 37.8097 32.7697 37.8797 32.6911 37.9657C32.6124 38.0518 32.5518 38.1522 32.5126 38.2613C32.4734 38.3704 32.4564 38.486 32.4626 38.6016C32.4689 38.7171 32.4982 38.8303 32.549 38.9347C32.5997 39.0391 32.6708 39.1327 32.7583 39.21C33.3759 39.7567 33.8699 40.4248 34.2082 41.1711C34.5466 41.9174 34.7218 42.7254 34.7225 43.5425C34.7225 44.4871 34.4875 45.4248 34.0431 46.2539C33.9351 46.4603 33.9143 46.7004 33.9853 46.9218C34.0562 47.1433 34.2132 47.3282 34.422 47.4365C34.6308 47.5448 34.8746 47.5676 35.1004 47.5001C35.3263 47.4326 35.5159 47.2801 35.6281 47.0758C36.2079 45.9942 36.5142 44.7725 36.5142 43.5425C36.5142 41.394 35.5819 39.3372 33.9561 37.8996ZM27.4027 36.0815C26.9161 36.1693 26.594 36.6284 26.6832 37.107C26.7724 37.5857 27.2399 37.903 27.7258 37.8148C28.4874 37.6788 29.2685 37.6886 30.0263 37.8434C30.2588 37.8914 30.5012 37.8466 30.7001 37.7189C30.8991 37.5912 31.0383 37.391 31.0873 37.1624C31.1115 37.0491 31.1128 36.9323 31.0911 36.8186C31.0694 36.7048 31.0252 36.5964 30.9609 36.4995C30.8966 36.4026 30.8135 36.3191 30.7164 36.2538C30.6193 36.1884 30.51 36.1426 30.3949 36.1188C29.4189 35.917 28.3855 35.9043 27.4027 36.0815ZM40.5968 2C40.4792 1.99998 40.3627 2.02277 40.254 2.06704C40.1453 2.11132 40.0465 2.17622 39.9633 2.25805C39.8802 2.33987 39.8142 2.43701 39.7692 2.54393C39.7241 2.65084 39.701 2.76542 39.701 2.88114V4.9416C39.701 5.42835 40.102 5.82275 40.5968 5.82275C41.0917 5.82275 41.4927 5.42835 41.4927 4.9416V2.88114C41.4927 2.3944 41.0917 2 40.5968 2ZM40.5968 9.88563C40.4792 9.88562 40.3627 9.9084 40.254 9.95267C40.1453 9.99695 40.0465 10.0619 39.9633 10.1437C39.8802 10.2255 39.8142 10.3226 39.7692 10.4296C39.7241 10.5365 39.701 10.6511 39.701 10.7668V12.8271C39.701 13.3139 40.102 13.7083 40.5968 13.7083C41.0917 13.7083 41.4927 13.3139 41.4927 12.8271V10.7668C41.4927 10.5331 41.3983 10.309 41.2303 10.1437C41.0623 9.97847 40.8344 9.88563 40.5968 9.88563ZM40.5968 17.7711C40.4792 17.7711 40.3627 17.7939 40.254 17.8382C40.1453 17.8825 40.0465 17.9474 39.9633 18.0292C39.8802 18.111 39.8142 18.2082 39.7692 18.3151C39.7241 18.422 39.701 18.5366 39.701 18.6523V20.7126C39.701 21.1994 40.102 21.5938 40.5968 21.5938C41.0917 21.5938 41.4927 21.1994 41.4927 20.7126V18.6523C41.4927 18.4186 41.3983 18.1945 41.2303 18.0292C41.0623 17.864 40.8344 17.7711 40.5968 17.7711ZM40.5968 25.6567C40.4792 25.6566 40.3627 25.6794 40.254 25.7237C40.1453 25.768 40.0465 25.8329 39.9633 25.9147C39.8802 25.9965 39.8142 26.0937 39.7692 26.2006C39.7241 26.3075 39.701 26.4221 39.701 26.5378V28.5983C39.701 29.085 40.102 29.4794 40.5968 29.4794C41.0917 29.4794 41.4927 29.085 41.4927 28.5983V26.5378C41.4927 26.3041 41.3983 26.08 41.2303 25.9147C41.0623 25.7495 40.8344 25.6567 40.5968 25.6567ZM40.5968 33.5424C40.4792 33.5424 40.3627 33.5652 40.254 33.6094C40.1453 33.6537 40.0465 33.7186 39.9633 33.8005C39.8802 33.8823 39.8142 33.9794 39.7692 34.0863C39.7241 34.1932 39.701 34.3078 39.701 34.4236V36.4839C39.701 36.9706 40.102 37.365 40.5968 37.365C41.0917 37.365 41.4927 36.9706 41.4927 36.4839V34.4236C41.4927 33.9368 41.0917 33.5424 40.5968 33.5424ZM40.5968 41.4279C40.4792 41.4279 40.3627 41.4507 40.254 41.495C40.1453 41.5392 40.0465 41.6041 39.9633 41.686C39.8802 41.7678 39.8142 41.8649 39.7692 41.9719C39.7241 42.0788 39.701 42.1933 39.701 42.3091V44.3695C39.701 44.8563 40.102 45.2507 40.5968 45.2507C41.0917 45.2507 41.4927 44.8563 41.4927 44.3695V42.3091C41.4927 41.8223 41.0917 41.4279 40.5968 41.4279ZM40.5968 49.3136C40.4792 49.3135 40.3627 49.3363 40.254 49.3806C40.1453 49.4249 40.0465 49.4898 39.9633 49.5716C39.8802 49.6534 39.8142 49.7506 39.7692 49.8575C39.7241 49.9644 39.701 50.079 39.701 50.1947V52.255C39.701 52.7418 40.102 53.1362 40.5968 53.1362C41.0917 53.1362 41.4927 52.7418 41.4927 52.255V50.1947C41.4927 49.708 41.0917 49.3136 40.5968 49.3136ZM40.5968 57.1991C40.4792 57.1991 40.3627 57.2218 40.254 57.2661C40.1453 57.3104 40.0465 57.3753 39.9633 57.4571C39.8802 57.5389 39.8142 57.6361 39.7692 57.743C39.7241 57.8499 39.701 57.9645 39.701 58.0802V60.1406C39.701 60.6273 40.102 61.0217 40.5968 61.0217C41.0917 61.0217 41.4927 60.6273 41.4927 60.1406V58.0802C41.4927 57.5935 41.0917 57.1991 40.5968 57.1991Z" fill="#009B97"/>
</g>
<defs>
<clipPath id="clip0_801_697">
<rect width="61" height="60" fill="white" transform="translate(10 2)"/>
</clipPath>
</defs>
</svg>

<svg width="81" height="64" fill="none" xmlns="http://www.w3.org/2000/svg"><g clip-path="url(#clip0_801_697)" fill="#009B97"><path d="M54.886 13.33l4.933 2.083a13.112 13.112 0 012.897 1.685.906.906 0 001.072.024.883.883 0 00.327-.43.867.867 0 00-.295-.982 14.91 14.91 0 00-3.294-1.917l-4.933-2.083a8.37 8.37 0 01-2.477-1.608 8.224 8.224 0 01-2.603-5.974V2.881A.888.888 0 0049.618 2a.888.888 0 00-.896.881v1.247a9.98 9.98 0 003.158 7.25 10.16 10.16 0 003.006 1.952zM70.9 52.21l-1.042-1.97a.958.958 0 01-.11-.447v-9.848c0-.691-.146-1.376-.429-2.009a4.994 4.994 0 00-1.214-1.669l.002-.033v-2.92c2.258-4.77 1.725-10.366-1.407-14.653a.89.89 0 00-.583-.356.911.911 0 00-.668.155.886.886 0 00-.36.573.868.868 0 00.156.656 12.625 12.625 0 011.16 13.044.872.872 0 00-.09.383v1.64l-8.386-7.045v-1.024a.888.888 0 00-.896-.882.888.888 0 00-.896.881v12.327c0 1.204-.22 2.406-.643 3.535l-.158-.259a3.243 3.243 0 00-2.094-1.486 3.292 3.292 0 00-2.539.469 3.194 3.194 0 00-1.185 3.943l2.467 5.664a10.992 10.992 0 002.76 3.808c0 .02 0 .04.002.06l.399 6.204a.876.876 0 00.302.606.905.905 0 001.264-.08.873.873 0 00.222-.637l-.309-4.795c.301.173.61.332.926.477l1.01.461 3.504 4.66a.891.891 0 00.72.357.907.907 0 00.47-.131.886.886 0 00.33-.354.868.868 0 00-.08-.92l-3.64-4.84a.893.893 0 00-.342-.275l-1.217-.556a9.296 9.296 0 01-4.674-4.739l-2.467-5.664a1.437 1.437 0 01-.059-.988 1.485 1.485 0 011.745-1.01 1.48 1.48 0 01.949.673l1.803 2.956c.375.614 1.06.996 1.79.996h1.221a2.07 2.07 0 002.06-1.723l.183-1.106a.866.866 0 00-.157-.657.89.89 0 00-.583-.355.907.907 0 00-.667.155.88.88 0 00-.36.573l-.184 1.107a.288.288 0 01-.1.175.298.298 0 01-.192.069h-1.221a.3.3 0 01-.254-.141l-.513-.842a11.88 11.88 0 001.303-5.39v-3.507l2.06 2.42a.31.31 0 01.07.253l-.348 2.101a.866.866 0 00.202.713.894.894 0 00.683.31.905.905 0 00.58-.21.878.878 0 00.303-.53l.348-2.101a2.042 2.042 0 00-.465-1.666l-3.433-4.035v-2.733l8.873 7.455a3.198 3.198 0 011.154 2.462v9.848c0 .437.108.873.313 1.26l1.04 1.97a.886.886 0 00.526.433.91.91 0 00.956-.273.877.877 0 00.206-.643.87.87 0 00-.097-.33zM47.046 37.9a7.544 7.544 0 00-2.558 5.642c0 1.23.307 2.452.886 3.534a.886.886 0 00.528.43.91.91 0 00.683-.062.885.885 0 00.438-.519.868.868 0 00-.064-.671 5.756 5.756 0 01-.679-2.712c0-.817.176-1.625.514-2.37a5.842 5.842 0 011.45-1.962.883.883 0 00.303-.61.866.866 0 00-.228-.64.895.895 0 00-.624-.292.908.908 0 00-.649.232z"/><path d="M50.608 36.119a.896.896 0 00-.558.383.87.87 0 00.26 1.212.908.908 0 00.667.13 6.117 6.117 0 012.3-.03.91.91 0 00.677-.136.886.886 0 00.377-.569.867.867 0 00-.147-.664.89.89 0 00-.583-.363 7.941 7.941 0 00-2.993.037zM31.385 2a.909.909 0 00-.634.258.88.88 0 00-.262.623v1.247a8.225 8.225 0 01-2.602 5.974 8.373 8.373 0 01-2.478 1.608l-4.933 2.083c-3.746 1.582-6.597 4.522-8.025 8.279a14.211 14.211 0 00.445 11.242v2.92l.002.031a4.897 4.897 0 00-1.213 1.646 4.824 4.824 0 00-.43 1.988v1.562a.89.89 0 00.897.882.888.888 0 00.896-.882V39.9c0-.454.1-.902.292-1.314a3.14 3.14 0 01.826-1.073l8.909-7.484v2.733l-3.434 4.035a2.063 2.063 0 00-.465 1.666l1.153 6.963c.078.482.328.92.706 1.236a2.1 2.1 0 001.354.487h1.221c.73 0 1.415-.382 1.79-.996l1.803-2.956a1.456 1.456 0 01.949-.673 1.493 1.493 0 011.15.212c.286.19.497.472.595.798.098.326.077.676-.059.988l-2.467 5.664a9.297 9.297 0 01-4.674 4.739l-1.216.556a.892.892 0 00-.343.275l-3.64 4.84a.873.873 0 00.187 1.232.9.9 0 00.936.079.89.89 0 00.317-.263l3.505-4.66 1.009-.461c.316-.145.624-.303.925-.476l-.308 4.794a.868.868 0 00.222.638.906.906 0 001.264.079.876.876 0 00.302-.606l.4-6.204v-.06a10.994 10.994 0 002.76-3.808l2.468-5.664a3.193 3.193 0 00-1.185-3.943 3.29 3.29 0 00-2.539-.469 3.242 3.242 0 00-2.095 1.487l-.157.258a10.118 10.118 0 01-.643-3.535V26.687a.888.888 0 00-.896-.882.888.888 0 00-.896.881v1.025l-8.387 7.046v-1.641a.872.872 0 00-.089-.383 12.495 12.495 0 01-.469-10.044c1.255-3.302 3.76-5.886 7.054-7.276l4.933-2.083a10.165 10.165 0 003.007-1.952 9.98 9.98 0 003.158-7.25V2.881A.888.888 0 0031.385 2zm-7.521 43.245a.296.296 0 01-.254.141h-1.22a.297.297 0 01-.192-.069.288.288 0 01-.1-.175l-1.152-6.963a.31.31 0 01.07-.252l2.06-2.42v3.506c0 1.865.45 3.724 1.303 5.39l-.514.842z"/><path d="M12.152 44.336a.91.91 0 00-.633.258.88.88 0 00-.263.623v4.6a.86.86 0 01-.1.401l-1.052 1.992a.868.868 0 00-.056.669.903.903 0 001.12.573.893.893 0 00.526-.43l1.052-1.99c.198-.376.301-.792.302-1.214v-4.601a.867.867 0 00-.262-.623.897.897 0 00-.634-.258zM33.956 37.9a.897.897 0 00-.646-.225.907.907 0 00-.619.29.878.878 0 00-.228.637.87.87 0 00.295.608 5.84 5.84 0 011.45 1.961 5.73 5.73 0 01.514 2.371c0 .945-.235 1.883-.679 2.712a.868.868 0 00-.058.668.89.89 0 00.437.515.91.91 0 00.678.063.893.893 0 00.528-.424 7.503 7.503 0 00.886-3.534 7.544 7.544 0 00-2.558-5.642zm-6.553-1.819a.882.882 0 00-.72 1.026.895.895 0 001.043.708 6.121 6.121 0 012.3.028.908.908 0 00.674-.124.881.881 0 00.391-.9.873.873 0 00-.375-.565.903.903 0 00-.321-.135 7.946 7.946 0 00-2.992-.038zM40.597 2a.909.909 0 00-.634.258.881.881 0 00-.262.623v2.06a.89.89 0 00.896.882.888.888 0 00.896-.881v-2.06A.888.888 0 0040.597 2zm0 7.886a.909.909 0 00-.634.258.88.88 0 00-.262.623v2.06c0 .487.401.881.896.881a.888.888 0 00.896-.88v-2.061a.874.874 0 00-.263-.623.904.904 0 00-.633-.258zm0 7.885a.909.909 0 00-.634.258.881.881 0 00-.262.623v2.06a.89.89 0 00.896.882.888.888 0 00.896-.881v-2.06a.874.874 0 00-.263-.624.904.904 0 00-.633-.258zm0 7.886a.907.907 0 00-.634.258.881.881 0 00-.262.623v2.06c0 .487.401.881.896.881a.888.888 0 00.896-.88v-2.061a.874.874 0 00-.263-.623.904.904 0 00-.633-.258zm0 7.885a.91.91 0 00-.634.258.88.88 0 00-.262.624v2.06c0 .487.401.881.896.881a.888.888 0 00.896-.881v-2.06a.888.888 0 00-.896-.882zm0 7.886a.909.909 0 00-.634.258.88.88 0 00-.262.623v2.06a.89.89 0 00.896.882.888.888 0 00.896-.881v-2.06a.888.888 0 00-.896-.882zm0 7.886a.907.907 0 00-.634.258.881.881 0 00-.262.623v2.06c0 .487.401.881.896.881a.888.888 0 00.896-.881v-2.06a.888.888 0 00-.896-.881zm0 7.885a.908.908 0 00-.634.258.881.881 0 00-.262.623v2.06a.89.89 0 00.896.882.888.888 0 00.896-.881v-2.06a.888.888 0 00-.896-.882z"/></g><defs><clipPath id="clip0_801_697"><path fill="#fff" transform="translate(10 2)" d="M0 0h61v60H0z"/></clipPath></defs></svg>
